X: 20332
T: SPANISH WALTZ
C:
%R: waltz
B: Elias Howe "The Musician's Companion" 1843 p.33 #2
S: http://imslp.org/wiki/The_Musician's_Companion_(Howe,_Elias)
Z: 2015 John Chambers <jc:trillian.mit.edu>
N: The 1st strain has 7 bar; making it 8 bars by playing both endings sounds better.
N: Initial rest added to the 2nd strain to fix the rhythm.
M: 3/8
L: 1/16
K: G
% - - - - - - - - - - - - - - - - - - - - - - - - -
Bc |\
!p!(ed)(^cd)(BG) | (ed)(^cd)(BG) | (gf)(gb)(ag) | (fe).d2 Bd |\
(ed)(^cd)(BG) | (ed)(^cd)(BG) |1 (FE)(cA)(GF) :|2 G4 "^Fine"y:|
z2 |\
D2F2A2 | (G2B2G2) | c2B2 ({B}AG) | (FG)(A^G)(Ad) |\
(DF)(AF)(DF) | (GD)(BD)(AD) | (cD)(BD)(AG) | ^c2d=cB"^D.C."c |]
% - - - - - - - - - - - - - - - - - - - - - - - - -

%%sep 1 1 500

